X: 29384
T: Next Time I Will
R: jig
M: 6/8
K: Fmajor
E|:FGF c2 d|cAF d2 c|FGF cAF|FGA G (3CDE|
FGF c2 d|cAF fFd|cfd cAG|1 (3AGF E F2 E:|2 (3AGF E FGA||
|:BAB cAF|BFf cAF|BAB cAF|FGA GcA|
BAB cAF|B2 f cAB|cfd cAG|1 (3AGF E FGA:|2 (3AGF E F2 E||

